web/packages/design/src/ResourceIcon/assets/pingdom.svg

<svg width="72" height="72" viewBox="0 0 72 72" fill="none" xmlns="http://www.w3.org/2000/svg">
<path d="M34.2708 34.1969C34.4815 34.1404 34.6858 34.0842 34.8961 34.0236C39.5113 32.7222 44.001 30.9197 48.4621 29.0525C52.8298 27.2249 57.1491 25.0303 60.9444 21.9415C64.8391 18.7733 67.9715 14.669 69.7009 9.57895C69.9444 8.87059 70.4421 7.84887 70.4902 7.07178C64.4256 15.3645 40.3682 16.2203 40.3682 16.2203L46.0455 11.0119C23.223 11.0555 7.29685 20.7428 0 25.9234C9.33806 26.9252 17.7911 30.8801 24.4092 36.836C27.6654 35.8276 30.9892 35.0993 34.2708 34.1969Z" fill="#FF6200"/>
<path d="M72.0004 33.3825C72.0004 33.3825 49.8024 31.6849 26.7441 39.1096C29.8034 42.3056 32.3819 45.9612 34.358 49.9697C46.4815 43.2212 63.2927 34.5993 72.0004 33.3825Z" fill="#FF6200"/>
<path d="M35.877 53.4345C37.2848 57.0546 38.2289 60.9057 38.6206 64.9172L59.7518 43.1841L35.877 53.4345Z" fill="#FF6200"/>
<path d="M35.877 53.4345C37.2848 57.0546 38.2289 60.9057 38.6206 64.9172L59.7518 43.1841L35.877 53.4345Z" fill="#FF6200"/>
</svg>

<svg xmlns="http://www.w3.org/2000/svg" width="72" height="72" fill="none" viewBox="0 0 72 72"><path fill="#ff6200" d="M34.27 34.197c.211-.057.416-.113.626-.173 4.615-1.302 9.105-3.104 13.566-4.972 4.368-1.827 8.687-4.022 12.482-7.11 3.895-3.169 7.028-7.273 8.757-12.363.243-.708.741-1.73.79-2.507-6.065 8.293-30.123 9.148-30.123 9.148l5.677-5.208C23.223 11.055 7.297 20.742 0 25.923c9.338 1.002 17.791 4.957 24.41 10.913 3.255-1.008 6.58-1.737 9.86-2.64M72 33.383s-22.198-1.698-45.256 5.727a43.6 43.6 0 0 1 7.614 10.86C46.482 43.22 63.293 34.6 72 33.383M35.877 53.435a43.3 43.3 0 0 1 2.744 11.482l21.13-21.733z"/><path fill="#ff6200" d="M35.877 53.435a43.3 43.3 0 0 1 2.744 11.482l21.13-21.733z"/></svg>
